SF_Symbols/minus.forwardslash.plus.svg

<?xml version="1.0" encoding="UTF-8"?>
<svg xmlns="http://www.w3.org/2000/svg" xmlns:xlink="http://www.w3.org/1999/xlink" width="24" height="24" viewBox="0 0 24 24" version="1.1">
<g id="surface1">
<path style=" stroke:none;fill-rule:nonzero;fill:rgb(100%,100%,100%);fill-opacity:1;" d="M 1.746094 8.121094 L 8.167969 8.121094 C 8.402344 8.121094 8.597656 8.042969 8.753906 7.886719 C 8.917969 7.722656 9 7.527344 9 7.300781 C 9 7.074219 8.917969 6.878906 8.753906 6.714844 C 8.597656 6.550781 8.402344 6.46875 8.167969 6.46875 L 1.746094 6.46875 C 1.511719 6.46875 1.3125 6.550781 1.148438 6.714844 C 0.992188 6.878906 0.914062 7.074219 0.914062 7.300781 C 0.914062 7.527344 0.992188 7.722656 1.148438 7.886719 C 1.3125 8.042969 1.511719 8.121094 1.746094 8.121094 Z M 5.132812 23.613281 C 5.328125 23.613281 5.492188 23.566406 5.625 23.472656 C 5.757812 23.386719 5.898438 23.234375 6.046875 23.015625 L 12.914062 12.832031 L 19.59375 2.964844 C 19.671875 2.847656 19.726562 2.738281 19.757812 2.636719 C 19.796875 2.535156 19.816406 2.425781 19.816406 2.308594 C 19.816406 2.074219 19.726562 1.878906 19.546875 1.722656 C 19.375 1.558594 19.167969 1.476562 18.925781 1.476562 C 18.722656 1.476562 18.550781 1.519531 18.410156 1.605469 C 18.277344 1.683594 18.128906 1.84375 17.964844 2.085938 L 11.261719 12.035156 L 4.429688 22.101562 C 4.351562 22.210938 4.292969 22.316406 4.253906 22.417969 C 4.214844 22.527344 4.195312 22.644531 4.195312 22.769531 C 4.195312 23.027344 4.285156 23.230469 4.464844 23.378906 C 4.652344 23.535156 4.875 23.613281 5.132812 23.613281 Z M 15 18.492188 C 15 18.71875 15.078125 18.914062 15.234375 19.078125 C 15.398438 19.234375 15.59375 19.3125 15.820312 19.3125 L 18.222656 19.3125 L 18.222656 21.714844 C 18.222656 21.941406 18.300781 22.132812 18.457031 22.289062 C 18.621094 22.453125 18.816406 22.535156 19.042969 22.535156 C 19.269531 22.535156 19.464844 22.453125 19.628906 22.289062 C 19.792969 22.132812 19.875 21.941406 19.875 21.714844 L 19.875 19.3125 L 22.253906 19.3125 C 22.480469 19.3125 22.675781 19.234375 22.839844 19.078125 C 23.003906 18.914062 23.085938 18.71875 23.085938 18.492188 C 23.085938 18.257812 23.003906 18.0625 22.839844 17.90625 C 22.675781 17.742188 22.480469 17.660156 22.253906 17.660156 L 19.875 17.660156 L 19.875 15.28125 C 19.875 15.046875 19.792969 14.851562 19.628906 14.695312 C 19.464844 14.53125 19.269531 14.449219 19.042969 14.449219 C 18.808594 14.449219 18.613281 14.53125 18.457031 14.695312 C 18.300781 14.851562 18.222656 15.046875 18.222656 15.28125 L 18.222656 17.660156 L 15.820312 17.660156 C 15.59375 17.660156 15.398438 17.742188 15.234375 17.90625 C 15.078125 18.0625 15 18.257812 15 18.492188 Z M 15 18.492188 "/>
</g>
</svg>

<svg xmlns="http://www.w3.org/2000/svg" width="24" height="24"><path style="stroke:none;fill-rule:nonzero;fill:#fff;fill-opacity:1" d="M1.746 8.121h6.422c.234 0 .43-.078.586-.234A.794.794 0 0 0 9 7.3a.788.788 0 0 0-.246-.586.76.76 0 0 0-.586-.246H1.746a.826.826 0 0 0-.594.238.82.82 0 0 0-.238.594.82.82 0 0 0 .234.586c.16.152.375.238.598.234Zm3.387 15.492c.195 0 .36-.047.492-.14.133-.086.273-.239.422-.457l6.867-10.184 6.68-9.867c.078-.117.133-.227.164-.328a.937.937 0 0 0 .058-.328c0-.235-.09-.43-.27-.586a.88.88 0 0 0-.62-.246.993.993 0 0 0-.516.128c-.133.079-.281.239-.445.48l-6.703 9.95L4.43 22.102a1.56 1.56 0 0 0-.176.316c-.04.11-.059.227-.059.352 0 .257.09.46.27.609.187.156.41.234.668.234ZM15 18.493a.82.82 0 0 0 .234.585.82.82 0 0 0 .586.235h2.403v2.402a.793.793 0 0 0 .234.574c.152.16.363.25.586.246a.788.788 0 0 0 .586-.246.762.762 0 0 0 .246-.574v-2.402h2.379a.82.82 0 0 0 .832-.82.773.773 0 0 0-.246-.587.788.788 0 0 0-.586-.246h-2.379v-2.379a.788.788 0 0 0-.246-.586.788.788 0 0 0-.586-.246.773.773 0 0 0-.586.246.804.804 0 0 0-.234.586v2.38H15.82a.803.803 0 0 0-.586.245.79.79 0 0 0-.234.586Zm0 0"/></svg>
